assets/icons/24px/stroke/outbox-tray-24px.svg

<svg width="24" height="24" viewBox="0 0 24 24" fill="none" xmlns="http://www.w3.org/2000/svg">
<path fill-rule="evenodd" clip-rule="evenodd" d="M15.281 8.87531C15.626 9.30657 15.556 9.93586 15.1248 10.2809L12.6248 12.2809C12.2596 12.573 11.7406 12.573 11.3754 12.2809L8.87539 10.2809C8.44413 9.93586 8.37421 9.30657 8.71922 8.87531C9.06423 8.44404 9.69352 8.37412 10.1248 8.71913L11.0001 9.41937V3C11.0001 2.44772 11.4478 2 12.0001 2C12.5524 2 13.0001 2.44772 13.0001 3V9.41937L13.8754 8.71913C14.3067 8.37412 14.9359 8.44404 15.281 8.87531Z" fill="white"/>
<path fill-rule="evenodd" clip-rule="evenodd" d="M8.17384 15.0212C8.0957 15.0048 8.0063 15 7.54648 15H4V17C4 17.971 4.00213 18.5987 4.06431 19.0612C4.12263 19.495 4.21677 19.6309 4.2929 19.7071C4.36902 19.7832 4.50497 19.8773 4.93871 19.9356C5.40121 19.9978 6.02893 20 7 20H17C17.9711 20 18.5988 19.9978 19.0613 19.9356C19.495 19.8773 19.631 19.7832 19.7071 19.7071C19.7832 19.6309 19.8774 19.495 19.9357 19.0612C19.9979 18.5987 20 17.971 20 17V15H16.4535C15.9937 15 15.9043 15.0048 15.8262 15.0212C15.7915 15.0284 15.7572 15.0375 15.7235 15.0485C15.6475 15.073 15.5675 15.1131 15.1683 15.3413C15.1135 15.3726 15.0594 15.4035 15.0061 15.4341C14.0133 16.0025 13.2617 16.4328 12.4243 16.5221C12.1423 16.5522 11.8578 16.5522 11.5757 16.5221C10.7383 16.4328 9.9867 16.0025 8.99391 15.4341C8.94057 15.4035 8.88654 15.3726 8.83175 15.3413C8.43252 15.1131 8.35249 15.073 8.27652 15.0485C8.2428 15.0375 8.20853 15.0284 8.17384 15.0212ZM7.61724 12.9999C7.96745 12.9996 8.27689 12.9994 8.58378 13.0636C8.68783 13.0854 8.79065 13.1127 8.89181 13.1454C9.19014 13.2419 9.45869 13.3957 9.76262 13.5697C9.78292 13.5813 9.80339 13.593 9.82403 13.6048C11.0552 14.3083 11.4208 14.4943 11.7878 14.5334C11.9289 14.5485 12.0711 14.5485 12.2122 14.5334C12.5792 14.4943 12.9449 14.3083 14.176 13.6048C14.1966 13.593 14.2171 13.5813 14.2374 13.5697C14.5413 13.3957 14.8099 13.2419 15.1082 13.1454C15.2094 13.1127 15.3122 13.0854 15.4162 13.0636C15.7231 12.9994 16.0326 12.9996 16.3828 12.9999C16.4062 12.9999 16.4297 13 16.4535 13H22L22 17.0658C22.0001 17.9523 22.0001 18.7161 21.9179 19.3277C21.8297 19.9833 21.631 20.6116 21.1213 21.1213C20.6117 21.6309 19.9833 21.8297 19.3278 21.9178C18.7161 22 17.9523 22 17.0658 22H6.93417C6.04769 22 5.28387 22 4.67221 21.9178C4.0167 21.8297 3.38835 21.6309 2.87868 21.1213C2.36902 20.6116 2.17028 19.9833 2.08215 19.3277C1.99991 18.7161 1.99995 17.9523 2 17.0658C2 17.0439 2 17.022 2 17V13H7.54648C7.57026 13 7.59384 12.9999 7.61724 12.9999Z" fill="white"/>
<path fill-rule="evenodd" clip-rule="evenodd" d="M18.001 8.04622C17.8894 8.01104 17.7429 7.99994 17.0114 7.99994H16.5C15.9477 7.99994 15.5 7.55223 15.5 6.99994C15.5 6.44766 15.9477 5.99994 16.5 5.99994H17.0114C17.0503 5.99994 17.0888 5.99989 17.1269 5.99985C17.676 5.99918 18.1577 5.99859 18.6024 6.13879C19.1222 6.30269 19.5876 6.6051 19.9485 7.01355C20.2572 7.36294 20.4523 7.80341 20.6747 8.30542C20.6901 8.34032 20.7057 8.37553 20.7215 8.41102L21.6501 10.5004C21.6552 10.512 21.6603 10.5234 21.6654 10.5348C21.7415 10.7058 21.8086 10.8566 21.8594 11.0166C21.9189 11.2041 21.9599 11.397 21.9816 11.5926C22.0002 11.7594 22.0001 11.9246 22 12.1117C22 12.1241 22 12.1367 22 12.1493V13.9999C22 14.5522 21.5523 14.9999 21 14.9999C20.4477 14.9999 20 14.5522 20 13.9999V12.1493C20 11.9043 19.9986 11.8563 19.9939 11.8138C19.9866 11.7486 19.973 11.6843 19.9532 11.6218C19.9402 11.581 19.922 11.5366 19.8225 11.3127L18.8939 9.2233C18.5968 8.55482 18.5271 8.4255 18.4497 8.33781C18.3294 8.20166 18.1743 8.10086 18.001 8.04622ZM7.03135 5.99986C7.06766 5.9999 7.10428 5.99994 7.14121 5.99994H7.50003C8.05231 5.99994 8.50003 6.44766 8.50003 6.99994C8.50003 7.55223 8.05231 7.99994 7.50003 7.99994H7.14121C6.44384 7.99994 6.30457 8.01014 6.19689 8.04267C6.02991 8.09312 5.87902 8.18637 5.75922 8.31317C5.68197 8.39493 5.61057 8.51493 5.29869 9.13868L4.21751 11.301C4.09569 11.5447 4.07339 11.5931 4.05753 11.6379C4.03323 11.7064 4.01648 11.7774 4.00757 11.8495C4.00175 11.8966 4.00003 11.9499 4.00003 12.2223V13.9999C4.00003 14.5522 3.55231 14.9999 3.00003 14.9999C2.44774 14.9999 2.00003 14.5522 2.00003 13.9999V12.2223C2.00003 12.2082 2.00002 12.1943 2.00001 12.1804C1.99991 11.9726 1.99982 11.7892 2.02264 11.6044C2.04938 11.3879 2.09964 11.175 2.17254 10.9694C2.23477 10.7939 2.31686 10.6299 2.40989 10.4441C2.4161 10.4317 2.42235 10.4192 2.42865 10.4066L3.50984 8.24425C3.52635 8.21122 3.54269 8.17845 3.55889 8.14595C3.79277 7.67683 3.99812 7.26493 4.30548 6.93962C4.66488 6.55923 5.11753 6.27948 5.61848 6.12814C6.04691 5.9987 6.50716 5.99924 7.03135 5.99986Z" fill="white"/>
</svg>

<svg width="24" height="24" fill="none" xmlns="http://www.w3.org/2000/svg"><path fill-rule="evenodd" clip-rule="evenodd" d="M15.281 8.875a1 1 0 0 1-.156 1.406l-2.5 2a1 1 0 0 1-1.25 0l-2.5-2a1 1 0 0 1 1.25-1.562l.875.7V3a1 1 0 1 1 2 0v6.42l.875-.7a1 1 0 0 1 1.406.155zm-7.107 6.146c-.078-.016-.168-.021-.628-.021H4v2c0 .971.002 1.599.064 2.061.059.434.153.57.229.646.076.076.212.17.646.229C5.4 19.998 6.029 20 7 20h10c.971 0 1.599-.002 2.061-.064.434-.059.57-.153.646-.229.076-.076.17-.212.229-.646.062-.462.064-1.09.064-2.061v-2h-3.547c-.46 0-.549.005-.627.021a.959.959 0 0 0-.103.027c-.075.025-.155.065-.555.293l-.162.093c-.993.569-1.744.999-2.582 1.088-.282.03-.566.03-.848 0-.838-.09-1.59-.52-2.582-1.088l-.162-.093c-.4-.228-.48-.268-.555-.292a.96.96 0 0 0-.103-.028zM7.617 13c.35 0 .66 0 .967.064.104.021.207.049.308.081.298.097.567.25.87.425l.062.035c1.231.703 1.597.89 1.964.928.14.016.283.016.424 0 .367-.039.733-.225 1.964-.928l.061-.035c.304-.174.573-.328.871-.425a3.01 3.01 0 0 1 .308-.081c.307-.065.617-.064.967-.064H22v4.066c0 .886 0 1.65-.082 2.262-.088.655-.287 1.284-.797 1.793-.51.51-1.138.709-1.793.797-.612.082-1.376.082-2.262.082H6.934c-.886 0-1.65 0-2.262-.082-.655-.088-1.284-.287-1.793-.797-.51-.51-.709-1.138-.797-1.793C2 18.716 2 17.952 2 17.066V13h5.617z" fill="#fff"/><path fill-rule="evenodd" clip-rule="evenodd" d="M18.001 8.046c-.112-.035-.258-.046-.99-.046H16.5a1 1 0 1 1 0-2h.627c.549 0 1.03-.001 1.475.139a3 3 0 0 1 1.346.875c.31.349.504.79.727 1.291l.046.106.93 2.09.014.034c.076.17.144.322.194.482.06.187.1.38.123.576.018.166.018.332.018.519v1.887a1 1 0 1 1-2 0v-1.85c0-.245-.001-.293-.006-.335a1.006 1.006 0 0 0-.04-.192 3.574 3.574 0 0 0-.131-.31l-.93-2.089c-.296-.668-.366-.798-.443-.885A1 1 0 0 0 18 8.046zM7.031 6H7.5a1 1 0 0 1 0 2h-.359c-.697 0-.836.01-.944.043a1 1 0 0 0-.438.27c-.077.082-.148.202-.46.826L4.218 11.3a3.548 3.548 0 0 0-.16.337 1 1 0 0 0-.05.212c-.006.047-.008.1-.008.372V14a1 1 0 1 1-2 0v-1.778-.042c0-.207 0-.39.023-.576a3 3 0 0 1 .15-.635 4.65 4.65 0 0 1 .237-.525l.019-.037 1.08-2.163.05-.098c.234-.47.44-.881.746-1.206a3 3 0 0 1 1.313-.812c.429-.13.89-.129 1.413-.128z" fill="#fff"/></svg>
